X:1
T:Ceuta, 10.10.10.10 D
T:Ceuta, 10.10.10.10 D
T:William M. Weckerly, 1891
T:Public Domain Courtesy of the Cyber Hymnal™
C:William M. Weckerly, 1891
Z:Public Domain
Z:Courtesy of the Cyber Hymnal™
%%score 1 ( 2 3 )
L:1/8
Q:1/4=85
M:6/8
K:Bb
V:1 treble 
V:2 bass 
V:3 bass 
V:1
 [DF]>[^C=E][DF] [DF]>[CE][DF] | [DF][DB][Fc] [Fd]3 | [Ge]>[Fd][Ec] [Fd]>[Ec][DB] | %3
 [FB][FA][FB] [Fc]3 | [DF]>[^C=E][DF] [DF]>[CE][DF] | [DF][DB][Fc] [Fd]3 | %6
 [Ge]>[Fd][Ec] [Fd]>[Ec][DB] | [Ac][EG][EA] [DB]3 | [Ac]>[^G=B][Ac] [Ac]>[GB][Ac] | %9
 [Fd][Fc][FB] [EA]3 | [Ac]>[^G=B][Ac] [Ac]>[GB][Ac] | [Fd][DB][EG] [DF]3 | %12
 [DF]>[^C=E][DF] [DF]>[CE][DF] | [DF][DB][Fc] [Fd]3 | [Ge]>[Fd][Ec] [Fd]>[Ec][DB] | %15
 [Ac][EG][EA] [DB]3 |] %16
V:2
 [B,,B,]>[B,,A,][B,,B,] [B,,B,]>[B,,A,][B,,B,] | [B,,B,][B,,F,][B,,F,] [B,,B,]3 | %2
 [C,C]>[D,B,][E,G,] [F,A,]>[F,A,][F,B,] | [F,B,D][F,C][F,B,D] [F,A,]3 | %4
 [B,,B,]>[B,,B,][B,,B,] [B,,B,]>[B,,B,][B,,B,] | [B,,B,][B,,F,][B,,F,] [B,,B,]3 | %6
 [C,C]>[D,B,][E,G,] [F,B,]>[F,B,][F,B,] | [F,A,][F,B,][F,C] [B,,F,]3 | F,>F,F, F,>F,F, | %9
 [F,B,][F,A,][F,D] [F,C]3 | F,>F,F, F,>F,F, | [B,,B,][B,,B,][B,,B,] [B,,B,]3 | %12
 [B,,B,]>[B,,B,][B,,B,] [B,,B,]>[B,,B,][B,,B,] | [B,,B,][B,,F,][B,,F,] [B,,B,]3 | %14
 [C,C]>[D,B,][E,G,] [F,B,]>[F,B,][F,B,] | [F,A,][F,B,][F,C] [B,,F,]3 |] %16
V:3
 x6 | x6 | x6 | x6 | x6 | x6 | x6 | x6 | F,>F,F, F,>F,F, | x6 | F,>F,F, F,>F,F, | x6 | x6 | x6 | %14
 x6 | x6 |] %16

